X: 676
T: The Running Morris
M:6/8
L:1/8
S: 8: MCJLSH3 http://www.cpartington.plus.com/links/Walsh.abc
Z: Pete Stewart 2004
B: Walsh "Third Book of the most Celebrated jiggs, Lancashire hornpipes, ..."
K:A
f/g/ | aga Bcd | cBc ABc | dcd BcA | GABE2f/g/ | aga Bcd | cde ^def | efg Be^d | (e3e2) ||
g/a/ | bab fga | gfg efg | aga Bcd | cBc ABc | dcd Bcd | ede cde | fcd Bag | a3a3 ||

%%sep 1 1 500
%%sep 1 1 500
